gama.ui.shared/icons_svg/light/overlays/small.expand.svg

<?xml version="1.0" encoding="UTF-8" standalone="no"?>
<!DOCTYPE svg PUBLIC "-//W3C//DTD SVG 1.1//EN" "http://www.w3.org/Graphics/SVG/1.1/DTD/svg11.dtd">
<svg version="1.1" xmlns="http://www.w3.org/2000/svg" xmlns:xl="http://www.w3.org/1999/xlink" xmlns:dc="http://purl.org/dc/elements/1.1/" viewBox="-312 -3548.5457 16 16" width="16" height="16">
  <defs/>
  <g id="SOURCES" stroke-dasharray="none" fill="none" stroke="none" fill-opacity="1" stroke-opacity="1">
    <title>SOURCES</title>
    <g id="SOURCES_Calque_2">
      <title>Calque 2</title>
      <g id="Group_9537">
        <g id="Group_9519">
          <g id="Graphic_9405"/>
          <g id="Group_9517">
            <title>chevron-double-right</title>
            <g id="Graphic_9518">
              <path d="M -303.87877 -3543.7157 C -304.05877 -3543.9257 -304.03877 -3544.2457 -303.82877 -3544.4257 C -303.61877 -3544.6057 -303.29877 -3544.5857 -303.11877 -3544.3757 L -300.11877 -3540.8757 C -299.95877 -3540.6857 -299.95877 -3540.4157 -300.11877 -3540.2257 L -303.11877 -3536.7257 C -303.29877 -3536.5157 -303.61877 -3536.4957 -303.82877 -3536.6757 C -304.03877 -3536.8557 -304.05877 -3537.1757 -303.87877 -3537.3857 L -301.15877 -3540.5557 Z M -307.87877 -3543.7157 C -308.05877 -3543.9257 -308.03877 -3544.2457 -307.82877 -3544.4257 C -307.61877 -3544.6057 -307.29877 -3544.5857 -307.11877 -3544.3757 L -304.11877 -3540.8757 C -303.95877 -3540.6857 -303.95877 -3540.4157 -304.11877 -3540.2257 L -307.11877 -3536.7157 C -307.29877 -3536.5057 -307.61877 -3536.4857 -307.82877 -3536.6657 C -308.03877 -3536.8457 -308.05877 -3537.1657 -307.87877 -3537.3757 L -305.15877 -3540.5457 Z" fill="white"/>
            </g>
          </g>
        </g>
        <g id="Group_9535">
          <title>chevron-double-right</title>
          <g id="Graphic_9536">
            <path d="M -302.71836 -3543.7157 C -302.89836 -3543.9257 -302.87836 -3544.2457 -302.66836 -3544.4257 C -302.45836 -3544.6057 -302.13836 -3544.5857 -301.95836 -3544.3757 L -298.95836 -3540.8757 C -298.79836 -3540.6857 -298.79836 -3540.4157 -298.95836 -3540.2257 L -301.95836 -3536.7257 C -302.13836 -3536.5157 -302.45836 -3536.4957 -302.66836 -3536.6757 C -302.87836 -3536.8557 -302.89836 -3537.1757 -302.71836 -3537.3857 L -299.99836 -3540.5557 Z M -306.71836 -3543.7157 C -306.89836 -3543.9257 -306.87836 -3544.2457 -306.66836 -3544.4257 C -306.45836 -3544.6057 -306.13836 -3544.5857 -305.95836 -3544.3757 L -302.95836 -3540.8757 C -302.79836 -3540.6857 -302.79836 -3540.4157 -302.95836 -3540.2257 L -305.95836 -3536.7157 C -306.13836 -3536.5057 -306.45836 -3536.4857 -306.66836 -3536.6657 C -306.87836 -3536.8457 -306.89836 -3537.1657 -306.71836 -3537.3757 L -303.99836 -3540.5457 Z" fill="#999"/>
          </g>
        </g>
      </g>
    </g>
  </g>
</svg>

<svg height="16" viewBox="-312 -3548.546 16 16" width="16" xmlns="http://www.w3.org/2000/svg"><g fill="none"><path d="m-303.87877-3543.7157c-.18-.21-.16-.53.05-.71s.53-.16.71.05l3 3.5c.16.19.16.46 0 .65l-3 3.5c-.18.21-.5.23-.71.05s-.23-.5-.05-.71l2.72-3.17zm-4 0c-.18-.21-.16-.53.05-.71s.53-.16.71.05l3 3.5c.16.19.16.46 0 .65l-3 3.51c-.18.21-.5.23-.71.05s-.23-.5-.05-.71l2.72-3.17z" fill="#fff"/><path d="m-302.71836-3543.7157c-.18-.21-.16-.53.05-.71s.53-.16.71.05l3 3.5c.16.19.16.46 0 .65l-3 3.5c-.18.21-.5.23-.71.05s-.23-.5-.05-.71l2.72-3.17zm-4 0c-.18-.21-.16-.53.05-.71s.53-.16.71.05l3 3.5c.16.19.16.46 0 .65l-3 3.51c-.18.21-.5.23-.71.05s-.23-.5-.05-.71l2.72-3.17z" fill="#999"/></g></svg>
